X:597
T: MEIN SCHATZ DER IST AUF DIE WANDERSCHAFT
N: E0557A
O: Europa, Mitteleuropa, Deutschland
R: Liebes - Lied, Trennung
M: 4/4
L: 1/8
K: D
DE | =F2D2D2DE | =F2D2D2
E2 | =F2FFG2FG | A3_BA2
=FG | A2A_B=c2A2 | _BAG=FE3
E | =FEFGA2GE | D2C2D2

@@@ Tune index: 4247
